X: 20572
Q: "Moderate."
M: C
L: 1/8
K: G
dfAd BGE^C | (E2D2) z2z2 |]
d2B^G A2AB | c2de {G}F2zF |\
d2 (c/B/)(A/G/) G2AB | c3d e2dc |\
d>edc B2dg |
{f2}e4 z2d2 |\
cBA^G Ae (d/c/)(B/A/) | {G2}F4 z2D2 |\
d2 (c/B/)(A/G/) G2AB | (cd) e2- e2dc |\


